hush

d2 $ sound (samples "{casio ~ bd*3, bd*2 rm*3, numbers lt [mt sn, lt*3 voodoo] sn bass3*2}" ("{7 2, 3 1 5}")) |+|end rand


d2 $ sound 
  (samples "{casio ~ bd:3, numbers lt [mt sn, lt*3 voodoo] sn bass3*2}" 
          ("{3 7 2, 9 1 5}")) 
